X: 32019
T: Peeriefool, The
R: reel
M: 4/4
K: Amajor
|:c3 A BABc|AFF/F/F EFAB|cfec cdd/d/d|dcBA EFAB|
c3 A BABc|AFF/F/F EFAB|Afec Aff/f/f|ecBA BcAF:|
|:f3 f ecBA|BABc dcBA|E F2 E FABc|efec BABc|
eff/f/f ecBA|cdeg aece|ef2f ecBA|eff/f/f efga:|

